src/assets/icons/payview/paypal.svg

<svg width="48" height="48" viewBox="0 0 48 48" fill="none" xmlns="http://www.w3.org/2000/svg">
<path d="M45.5 35.0519V35.0522C45.5012 36.9414 43.9152 38.5 41.9235 38.5H6.07652C4.08632 38.5 2.5 36.9415 2.5 35.0519V12.9468C2.5 11.0586 4.08621 9.5 6.07652 9.5H41.9235C43.9138 9.5 45.5 11.0586 45.5 12.9468V35.0519Z" fill="white" stroke="#CFD8DC"/>
<path d="M12.3009 22.2992C12.1649 23.1792 11.4816 23.1792 10.821 23.1792H10.4454L10.709 21.5351C10.7246 21.436 10.8125 21.3619 10.9146 21.3619H11.0875C11.5369 21.3619 11.9621 21.3619 12.1804 21.6148C12.3109 21.7656 12.352 21.9891 12.3009 22.2992ZM12.0146 20H9.52395C9.35385 20 9.20925 20.1215 9.18232 20.2878L8.17444 26.5819C8.1546 26.7063 8.25241 26.818 8.37999 26.818H9.56931C9.73942 26.818 9.88401 26.6965 9.91094 26.5303L10.1831 24.8331C10.2086 24.6669 10.3546 24.5453 10.5247 24.5453H11.3129C12.953 24.5453 13.8999 23.7631 14.148 22.2126C14.26 21.5337 14.1523 21.0015 13.8305 20.6286C13.4761 20.2165 12.8481 20 12.0146 20Z" fill="#253B80"/>
<path d="M17.7916 24.5571C17.6768 25.229 17.1353 25.6788 16.4463 25.6788C16.1004 25.6788 15.8226 25.5699 15.6454 25.3617C15.4696 25.1564 15.4016 24.8631 15.4583 24.5362C15.566 23.8699 16.116 23.4047 16.795 23.4047C17.1338 23.4047 17.4088 23.5151 17.5903 23.7246C17.7717 23.9369 17.844 24.2317 17.7916 24.5571ZM19.4544 22.2705H18.2622C18.1602 22.2705 18.0723 22.3431 18.0567 22.4437L18.0042 22.772L17.9206 22.6532C17.6626 22.2845 17.0871 22.1602 16.5115 22.1602C15.1932 22.1602 14.0677 23.1435 13.8479 24.5236C13.7345 25.2123 13.8961 25.8702 14.2916 26.3298C14.6545 26.7516 15.1748 26.9276 15.7942 26.9276C16.856 26.9276 17.4457 26.2543 17.4457 26.2543L17.3918 26.5812C17.372 26.7055 17.4698 26.8186 17.596 26.8186H18.6705C18.8406 26.8186 18.9852 26.6971 19.0121 26.5309L19.6571 22.508C19.6784 22.3823 19.582 22.2705 19.4544 22.2705Z" fill="#253B80"/>
<path d="M25.8066 22.2715H24.6073C24.4925 22.2715 24.3862 22.3274 24.321 22.4209L22.6681 24.8207L21.9678 22.5145C21.9239 22.3707 21.7892 22.2715 21.6361 22.2715H20.4581C20.315 22.2715 20.2157 22.4098 20.2611 22.5425L21.5808 26.3601L20.3391 28.0866C20.2413 28.2221 20.3405 28.4093 20.5078 28.4093H21.7042C21.8176 28.4093 21.9239 28.3548 21.9891 28.2626L25.9753 22.5928C26.0731 22.4559 25.9753 22.2715 25.8066 22.2715Z" fill="#253B80"/>
<path d="M30.068 22.2992C29.9319 23.1792 29.2487 23.1792 28.5881 23.1792H28.2124L28.4761 21.5351C28.4917 21.436 28.5782 21.3619 28.6802 21.3619H28.8532C29.3025 21.3619 29.7278 21.3619 29.9461 21.6148C30.0779 21.7656 30.1176 21.9891 30.068 22.2992ZM29.7802 20H27.2896C27.1195 20 26.9749 20.1215 26.948 20.2878L25.9401 26.582C25.9202 26.7063 26.018 26.818 26.1442 26.818H27.4228C27.5419 26.818 27.6426 26.7328 27.6624 26.6169L27.9488 24.8331C27.9743 24.6669 28.1203 24.5454 28.2904 24.5454H29.0786C30.7201 24.5454 31.6656 23.7631 31.9137 22.2126C32.0257 21.5337 31.9179 21.0015 31.5961 20.6286C31.2418 20.2165 30.6152 20 29.7802 20Z" fill="#009DE2"/>
<path d="M35.5597 24.5571C35.4449 25.229 34.9034 25.6788 34.2145 25.6788C33.8686 25.6788 33.5907 25.5699 33.4135 25.3617C33.2377 25.1564 33.1711 24.8631 33.2264 24.5362C33.3341 23.8699 33.8842 23.4047 34.5632 23.4047C34.902 23.4047 35.177 23.5151 35.3584 23.7246C35.5399 23.9369 35.6122 24.2317 35.5597 24.5571ZM37.2211 22.2705H36.0289C35.9269 22.2705 35.839 22.3431 35.8248 22.4437L35.7724 22.772L35.6887 22.6532C35.4307 22.2845 34.8552 22.1602 34.2797 22.1602C32.9613 22.1602 31.8358 23.1435 31.6175 24.5236C31.5041 25.2123 31.6657 25.8702 32.0612 26.3298C32.4255 26.7516 32.9443 26.9276 33.5638 26.9276C34.6255 26.9276 35.2153 26.2543 35.2153 26.2543L35.1614 26.5812C35.1415 26.7055 35.2393 26.8186 35.3669 26.8186H36.4414C36.6116 26.8186 36.7561 26.6971 36.7831 26.5309L37.4281 22.508C37.4465 22.3823 37.3501 22.2705 37.2211 22.2705Z" fill="#009DE2"/>
<path d="M38.6301 20.1748L37.608 26.5835C37.5882 26.7079 37.686 26.8196 37.8122 26.8196H38.8399C39.01 26.8196 39.156 26.6981 39.1815 26.5319L40.1894 20.239C40.2092 20.1147 40.1114 20.0029 39.9852 20.0029H38.8342C38.7336 20.0016 38.6457 20.0756 38.6301 20.1748Z" fill="#009DE2"/>
</svg>

<svg width="48" height="48" fill="none" xmlns="http://www.w3.org/2000/svg"><path d="M45.5 35.052c.001 1.89-1.585 3.448-3.577 3.448H6.078c-1.99 0-3.577-1.559-3.577-3.448V12.947C2.5 11.059 4.086 9.5 6.077 9.5h35.846c1.99 0 3.577 1.559 3.577 3.447v22.105Z" fill="#fff" stroke="#CFD8DC"/><path d="M12.3 22.3c-.135.88-.818.88-1.479.88h-.376l.264-1.645a.208.208 0 0 1 .206-.173h.173c.449 0 .874 0 1.092.253.13.15.172.374.12.684Zm-.285-2.3H9.524a.344.344 0 0 0-.342.288l-1.008 6.294a.206.206 0 0 0 .206.236h1.19c.17 0 .314-.122.34-.288l.273-1.697a.343.343 0 0 1 .342-.288h.788c1.64 0 2.587-.782 2.835-2.332.112-.68.004-1.212-.317-1.584-.355-.413-.983-.629-1.816-.629ZM17.792 24.557c-.115.672-.657 1.122-1.346 1.122-.346 0-.623-.11-.8-.317-.176-.206-.244-.499-.188-.826a1.33 1.33 0 0 1 1.337-1.131c.339 0 .614.11.795.32.182.212.254.507.202.832Zm1.662-2.287h-1.192a.206.206 0 0 0-.205.174l-.053.328-.083-.119c-.258-.368-.834-.493-1.41-.493-1.318 0-2.443.983-2.663 2.364-.114.688.048 1.346.444 1.806.363.422.883.598 1.502.598 1.062 0 1.652-.674 1.652-.674l-.054.327a.206.206 0 0 0 .204.238h1.075c.17 0 .314-.122.341-.288l.645-4.023a.203.203 0 0 0-.203-.238ZM25.807 22.271h-1.2a.348.348 0 0 0-.286.15l-1.653 2.4-.7-2.306a.346.346 0 0 0-.332-.244h-1.178a.206.206 0 0 0-.197.271l1.32 3.818-1.242 1.727a.204.204 0 0 0 .169.322h1.196c.114 0 .22-.054.285-.146l3.986-5.67a.203.203 0 0 0-.168-.322Z" fill="#253B80"/><path d="M30.068 22.3c-.136.88-.82.88-1.48.88h-.376l.264-1.645a.206.206 0 0 1 .204-.173h.173c.45 0 .875 0 1.093.253.132.15.172.374.122.684ZM29.78 20h-2.49a.344.344 0 0 0-.342.288l-1.008 6.294a.205.205 0 0 0 .204.236h1.279c.119 0 .22-.085.24-.201l.286-1.784a.343.343 0 0 1 .341-.288h.789c1.641 0 2.587-.782 2.835-2.332.112-.68.004-1.212-.318-1.584-.354-.413-.98-.629-1.816-.629ZM35.56 24.557c-.115.672-.657 1.122-1.346 1.122-.345 0-.623-.11-.8-.317-.176-.206-.243-.499-.188-.826a1.33 1.33 0 0 1 1.337-1.131c.339 0 .614.11.795.32.182.212.254.507.202.832Zm1.661-2.287H36.03a.204.204 0 0 0-.204.174l-.053.328-.083-.119c-.258-.368-.834-.493-1.41-.493-1.318 0-2.443.983-2.662 2.364-.113.688.049 1.346.444 1.806.364.422.883.598 1.503.598 1.062 0 1.651-.674 1.651-.674l-.054.327a.207.207 0 0 0 .206.238h1.074c.17 0 .315-.122.342-.288l.645-4.023a.207.207 0 0 0-.207-.238ZM38.63 20.175l-1.022 6.409a.205.205 0 0 0 .204.236h1.028c.17 0 .316-.122.341-.288l1.008-6.293a.205.205 0 0 0-.204-.236h-1.15a.205.205 0 0 0-.205.172Z" fill="#009DE2"/></svg>
